X:1
T: Strawberry Monday
C:Bruce Shawyer
R:Strathspey
Q:128
K:C
M:4/4
L:1/16
|:cG3 G3E A3c G3E|A3c G3E FD3 D4|cG3 G3E A3c G3E|F3A G3B cC3 C4|
cG3 G3E A3c G3E|A3c G3E FD3 D4|cG3 G3E A3c G3E|F3A G3B cC3 C4|
ec3 c3e f3e d3c|dB3 B3d e3d c4|ec3 c3e f3e d3c|B3A G3B cC3 C4|
ec3 c3e f3e d3c|dB3 B3d e3d c4|ec3 c3e f3e d3c|B3A G3B cC3 C4:|
